svg/transport/car_door_fill.svg

<?xml version="1.0" encoding="UTF-8"?>
<svg width="24px" height="24px" viewBox="0 0 24 24" version="1.1" xmlns="http://www.w3.org/2000/svg" xmlns:xlink="http://www.w3.org/1999/xlink">
    <title>car_door_fill</title>
    <g id="Icon" stroke="none" stroke-width="1" fill="none" fill-rule="evenodd">
        <g id="Transport" transform="translate(-720.000000, -240.000000)">
            <g id="car_door_fill" transform="translate(720.000000, 240.000000)">
                <path d="M24,0 L24,24 L0,24 L0,0 L24,0 Z M12.5935,23.2578 L12.5819,23.2595 L12.5109,23.295 L12.4919,23.2987 L12.4767,23.295 L12.4057,23.2595 C12.3958,23.2564 12.387,23.259 12.3821,23.2649 L12.378,23.2758 L12.3609,23.7031 L12.3659,23.7235 L12.3769,23.7357 L12.4805,23.8097 L12.4953,23.8136 L12.5071,23.8097 L12.6107,23.7357 L12.6233,23.7197 L12.6267,23.7031 L12.6096,23.2758 C12.6076,23.2657 12.601,23.2593 12.5935,23.2578 Z M12.8584,23.1453 L12.8445,23.1473 L12.6598,23.2397 L12.6499,23.2499 L12.6472,23.2611 L12.6651,23.6906 L12.6699,23.7034 L12.6784,23.7105 L12.8793,23.8032 C12.8914,23.8069 12.9022,23.803 12.9078,23.7952 L12.9118,23.7812 L12.8777,23.1665 C12.8753,23.1546 12.8674,23.147 12.8584,23.1453 Z M12.143,23.1473 C12.1332,23.1424 12.1222,23.1453 12.1156,23.1526 L12.1099,23.1665 L12.0758,23.7812 C12.0751,23.7927 12.0828,23.8019 12.0926,23.8046 L12.1083,23.8032 L12.3092,23.7105 L12.3186,23.7024 L12.3225,23.6906 L12.3404,23.2611 L12.3372,23.2485 L12.3278,23.2397 L12.143,23.1473 Z" id="MingCute" fill-rule="nonzero"></path>
                <path d="M12.0000009,2 C13.7512,2 15.1902,2.59235 16.1678,3.15858 C17.4919,3.92551 18.0000009,5.36821 18.0000009,6.65685 L18.0000009,8.3677 C18.3972004,8.61980857 18.7666451,8.86713673 19.0952362,9.09455399 L19.6602715,9.4939343 L19.6602715,9.4939343 L19.7601,9.56626 C20.0515,9.77821 20.341,9.99312 20.6229,10.2177 C21.049,10.5582 21.1221,11.1982 20.7809,11.6247 C20.4359,12.0559 19.8068,12.1259 19.3755,11.781 C18.9305,11.4264 18.4673,11.0934 18.0000009,10.7689 L18.0000009,17.5858 C18.0000009,18.7565 17.535,19.8793 16.7071,20.7071 C15.8793,21.5349 14.7565,22 13.5858,22 L10.4143,22 C9.24353,22 8.12076,21.5349 7.29293,20.7071 C6.4651,19.8793 6.00004,18.7565 6.00004,17.5858 L6.00004,10.7689 C5.53281,11.0934 5.06967,11.4263 4.62475,11.7809 C4.19349,12.1257 3.56413,12.0559 3.21917,11.6247 C2.87416,11.1934 2.94408,10.5641 3.37534,10.2191 C3.65875,9.99524 3.94791,9.77868 4.23999,9.56626 L4.66626784,9.26114723 C5.05044408,8.99050204 5.50356857,8.68283571 6.00004,8.3677 L6.00004,6.65685 C6.00004,5.36821 6.50819,3.92551 7.83228,3.15858 C8.80985,2.59235 10.2489,2 12.0000009,2 Z M16,11.4142 C15.3912,12.023 15,12.7787 15,13.6569 L15,17 C15,18.1046 14.1046,19 13,19 L11,19 C9.89547,19 9.00004,18.1046 9.00004,17 L9.00004,13.6569 C9.00004,12.7787 8.60886,12.023 8.00004,11.4142 L8.00004,17.5858 C8.00004,18.2261 8.25439,18.8401 8.70714,19.2929 C9.1599,19.7456 9.77396,20 10.4143,20 L13.5858,20 C14.2261,20 14.8402,19.7456 15.2929,19.2929 C15.7457,18.8401 16,18.2261 16,17.5858 L16,11.4142 Z M12,4 C10.7034,4 9.61066,4.43978 8.8347,4.88923 C8.32279,5.18573 8.00004,5.82377 8.00004,6.65685 L8.00004,7.21609 C8.36098,7.03175 8.72863,6.85819 9.09635,6.70336 C10.0342,6.30847 11.0539,6 12,6 C12.9462,6 13.9658,6.30847 14.9037,6.70336 C15.2714,6.85819 15.6391,7.03175 16,7.21609 L16,6.65685 C16,5.82377 15.6773,5.18573 15.1654,4.88923 C14.3894,4.43978 13.2967,4 12,4 Z" id="形状" fill="#09244B"></path>
            </g>
        </g>
    </g>
</svg>

<svg xmlns="http://www.w3.org/2000/svg" width="24" height="24"><g fill="none" fill-rule="evenodd"><path d="M24 0v24H0V0h24ZM12.594 23.258l-.012.002-.071.035-.02.004-.014-.004-.071-.036c-.01-.003-.019 0-.024.006l-.004.01-.017.428.005.02.01.013.104.074.015.004.012-.004.104-.074.012-.016.004-.017-.017-.427c-.002-.01-.009-.017-.016-.018Zm.264-.113-.014.002-.184.093-.01.01-.003.011.018.43.005.012.008.008.201.092c.012.004.023 0 .029-.008l.004-.014-.034-.614c-.003-.012-.01-.02-.02-.022Zm-.715.002a.023.023 0 0 0-.027.006l-.006.014-.034.614c0 .012.007.02.017.024l.015-.002.201-.093.01-.008.003-.011.018-.43-.003-.012-.01-.01-.184-.092Z"/><path fill="#09244B" d="M12 2c1.751 0 3.19.592 4.168 1.159C17.492 3.926 18 5.369 18 6.657v1.71c.397.253.767.5 1.095.728l.565.399.1.072c.291.212.581.427.863.652.426.34.5.98.158 1.407a1 1 0 0 1-1.405.156A25.958 25.958 0 0 0 18 10.769v6.817A4.414 4.414 0 0 1 13.586 22h-3.172A4.414 4.414 0 0 1 6 17.586v-6.817c-.467.324-.93.657-1.375 1.012a1 1 0 0 1-1.25-1.562c.284-.224.573-.44.865-.653l.426-.305c.384-.27.838-.578 1.334-.893V6.657c0-1.289.508-2.731 1.832-3.498C8.81 2.592 10.25 2 12 2Zm4 9.414c-.609.609-1 1.365-1 2.243V17a2 2 0 0 1-2 2h-2a2 2 0 0 1-2-2v-3.343c0-.878-.391-1.634-1-2.243v6.172A2.414 2.414 0 0 0 10.414 20h3.172A2.414 2.414 0 0 0 16 17.586v-6.172ZM12 4c-1.297 0-2.39.44-3.165.89C8.323 5.185 8 5.823 8 6.656v.56c.361-.185.729-.359 1.096-.514C10.034 6.308 11.054 6 12 6s1.966.308 2.904.703c.367.155.735.329 1.096.513v-.56c0-.832-.323-1.47-.835-1.767C14.39 4.44 13.297 4 12 4Z"/></g></svg>
